Numix-GalliumOS/64/devices/media-floppy.svg

<svg xmlns="http://www.w3.org/2000/svg" width="64" height="64" viewBox="0 0 48 48">
 <g>
  <path d="m 7.5 7.5 l 0 33 l 33 0 l 0 -28.5 l -4.5 -4.5 m -28.5 0" style="fill:#002a36;fill-opacity:1;stroke:none;fill-rule:nonzero"/>
  <path d="m 19.5 7.5 l 0 9 l 13.5 0 l 0 -9 m -13.5 0" style="fill:#93a1a1;fill-opacity:1;stroke:none;fill-rule:nonzero"/>
  <path d="m 12 19.5 l 0 21 l 24 0 l 0 -21 m -24 0" style="fill:#ede7d5;fill-opacity:1;stroke:none;fill-rule:nonzero"/>
  <path d="m 31.5 9 l -3 0 l 0 6 l 3 0 m 0 -6" style="fill:#002a36;fill-opacity:1;stroke:none;fill-rule:nonzero"/>
  <path d="m 13.5 25.5 l 0 1.5 l 21 0 l 0 -1.5 m -21 0" style="fill:#002a36;fill-opacity:1;stroke:none;fill-rule:nonzero"/>
  <path d="m 13.5 33 l 0 1.5 l 21 0 l 0 -1.5 m -21 0" style="fill:#002a36;fill-opacity:1;stroke:none;fill-rule:nonzero"/>
  <path d="m 37.5 40.5 l -3 0 l 0 -33 l 1.5 0 l 1.5 1.5 m 0 31.5" style="fill:#fcf5e3;fill-opacity:0.247;stroke:none;fill-rule:nonzero"/>
 </g>
</svg>

<?xml version="1.0" encoding="UTF-8" standalone="yes"?>
<svg xmlns="http://www.w3.org/2000/svg" xmlns:xlink="http://www.w3.org/1999/xlink" width="64px" height="64px" viewBox="0 0 48 48" version="1.1">
  <g id="surface1">
    <path style=" stroke:none;fill-rule:nonzero;fill:rgb(0%,16.862745%,21.176471%);fill-opacity:1;" d="M 7.5 7.5 L 7.5 40.5 L 40.5 40.5 L 40.5 12 L 36 7.5 Z M 7.5 7.5 "/>
    <path style=" stroke:none;fill-rule:nonzero;fill:rgb(57.647059%,63.137255%,63.137255%);fill-opacity:1;" d="M 19.5 7.5 L 19.5 16.5 L 33 16.5 L 33 7.5 Z M 19.5 7.5 "/>
    <path style=" stroke:none;fill-rule:nonzero;fill:rgb(93.333333%,90.980392%,83.529412%);fill-opacity:1;" d="M 12 19.5 L 12 40.5 L 36 40.5 L 36 19.5 Z M 12 19.5 "/>
    <path style=" stroke:none;fill-rule:nonzero;fill:rgb(0%,16.862745%,21.176471%);fill-opacity:1;" d="M 31.5 9 L 28.5 9 L 28.5 15 L 31.5 15 Z M 31.5 9 "/>
    <path style=" stroke:none;fill-rule:nonzero;fill:rgb(0%,16.862745%,21.176471%);fill-opacity:1;" d="M 13.5 25.5 L 13.5 27 L 34.5 27 L 34.5 25.5 Z M 13.5 25.5 "/>
    <path style=" stroke:none;fill-rule:nonzero;fill:rgb(0%,16.862745%,21.176471%);fill-opacity:1;" d="M 13.5 33 L 13.5 34.5 L 34.5 34.5 L 34.5 33 Z M 13.5 33 "/>
    <path style=" stroke:none;fill-rule:nonzero;fill:rgb(99.215686%,96.470588%,89.019608%);fill-opacity:0.247059;" d="M 37.5 40.5 L 34.5 40.5 L 34.5 7.5 L 36 7.5 L 37.5 9 Z M 37.5 40.5 "/>
  </g>
</svg>
